common/svg/question-icon.svg

<svg fill="none" height="20" viewBox="0 0 20 20" width="20" xmlns="http://www.w3.org/2000/svg"><path clip-rule="evenodd" d="m1 10.0001c0-4.97057 4.02953-9.0001 9.0001-9.0001 4.9706 0 9.0001 4.02953 9.0001 9.0001 0 4.9704-4.0295 8.9999-9.0001 8.9999-4.97057 0-9.0001-4.0295-9.0001-8.9999zm8.10645 3.6063c-.20964.2142-.31446.4785-.31446.793 0 .3099.10482.5742.31446.793.20963.2142.51725.3213.92285.3213.3965 0 .695-.1094.8955-.3282.2005-.2187.3008-.4808.3008-.7861 0-.3099-.1003-.5719-.3008-.7861-.2005-.2188-.499-.3282-.8955-.3282-.4056 0-.71322.1071-.92285.3213zm.51953-7.41696c.2233-.05013.46712-.0752.73142-.0752.4466 0 .7884.09343 1.0254.28028.2415.18685.3623.42382.3623.71093 0 .22331-.0364.43295-.1094.62891-.0729.19141-.1822.37142-.3281.54004-.1458.16406-.278.30078-.3965.41016-.1185.10937-.2757.23925-.4716.38964-.1915.14584-.3236.24838-.3965.30762-.05472.04557-.14359.12077-.26663.22559-.11849.10026-.19597.16634-.23242.19824-.03191.0319-.08887.08659-.1709.16406-.07748.07289-.12761.12759-.15039.16409-.01823.0364-.05013.0911-.09571.164-.04557.0684-.07291.1345-.08203.1983-.00911.0592-.02051.1321-.03418.2187-.00911.0821-.01367.1732-.01367.2735 0 .319.04785.5924.14355.8203.09571.2233.2142.3349.35547.3349.00456 0 .07748.0023.21875.0069.14584.0045.26433.0068.35546.0068.2643 0 .3965-.139.3965-.417 0-.0547-.0023-.1481-.0068-.2803-.0046-.1367-.0069-.2506-.0069-.3418 0-.1731.0502-.3349.1504-.4853.1048-.155.2393-.2939.4033-.417.1641-.1276.3441-.2552.5401-.38281.2005-.13216.3987-.27799.5947-.4375.2005-.1595.3828-.33496.5469-.52636.164-.19141.2962-.42839.3965-.71094.1048-.28711.1572-.60156.1572-.94336 0-.69727-.2621-1.23959-.7861-1.62695-.5196-.39193-1.2077-.5879-2.0645-.5879-.99349 0-1.72493.1709-2.19433.5127-.46485.3418-.69727.77702-.69727 1.30566 0 .278.08887.53093.2666.75879.18229.22787.45801.3418.82715.3418.18685 0 .30306-.02506.34863-.0752.04558-.05468.06836-.18912.06836-.40332v-1.04589l.14356-.06836c.09114-.04558.24837-.09115.47168-.13672z" fill="#000" fill-rule="evenodd"/></svg>

<svg width="20" height="20" viewBox="0 0 20 20" fill="none" xmlns="http://www.w3.org/2000/svg">
<path fill-rule="evenodd" clip-rule="evenodd" d="M1 10.0001C1 5.02953 5.02953 1 10.0001 1C14.9707 1 19.0002 5.02953 19.0002 10.0001C19.0002 14.9705 14.9707 19 10.0001 19C5.02953 19 1 14.9705 1 10.0001ZM9.10645 13.6064C8.89681 13.8206 8.79199 14.0849 8.79199 14.3994C8.79199 14.7093 8.89681 14.9736 9.10645 15.1924C9.31608 15.4066 9.6237 15.5137 10.0293 15.5137C10.4258 15.5137 10.7243 15.4043 10.9248 15.1855C11.1253 14.9668 11.2256 14.7047 11.2256 14.3994C11.2256 14.0895 11.1253 13.8275 10.9248 13.6133C10.7243 13.3945 10.4258 13.2851 10.0293 13.2851C9.6237 13.2851 9.31608 13.3922 9.10645 13.6064ZM9.62598 6.18944C9.84928 6.13931 10.0931 6.11424 10.3574 6.11424C10.804 6.11424 11.1458 6.20767 11.3828 6.39452C11.6243 6.58137 11.7451 6.81834 11.7451 7.10545C11.7451 7.32876 11.7087 7.5384 11.6357 7.73436C11.5628 7.92577 11.4535 8.10578 11.3076 8.2744C11.1618 8.43846 11.0296 8.57518 10.9111 8.68456C10.7926 8.79393 10.6354 8.92381 10.4395 9.0742C10.248 9.22004 10.1159 9.32258 10.043 9.38182C9.98828 9.42739 9.89941 9.50259 9.77637 9.60741C9.65788 9.70767 9.5804 9.77375 9.54395 9.80565C9.51204 9.83755 9.45508 9.89224 9.37305 9.96971C9.29557 10.0426 9.24544 10.0973 9.22266 10.1338C9.20443 10.1702 9.17253 10.2249 9.12695 10.2978C9.08138 10.3662 9.05404 10.4323 9.04492 10.4961C9.03581 10.5553 9.02441 10.6282 9.01074 10.7148C9.00163 10.7969 8.99707 10.888 8.99707 10.9883C8.99707 11.3073 9.04492 11.5807 9.14062 11.8086C9.23633 12.0319 9.35482 12.1435 9.49609 12.1435C9.50065 12.1435 9.57357 12.1458 9.71484 12.1504C9.86068 12.1549 9.97917 12.1572 10.0703 12.1572C10.3346 12.1572 10.4668 12.0182 10.4668 11.7402C10.4668 11.6855 10.4645 11.5921 10.46 11.4599C10.4554 11.3232 10.4531 11.2093 10.4531 11.1181C10.4531 10.945 10.5033 10.7832 10.6035 10.6328C10.7083 10.4778 10.8428 10.3389 11.0068 10.2158C11.1709 10.0882 11.3509 9.9606 11.5469 9.83299C11.7474 9.70083 11.9456 9.555 12.1416 9.39549C12.3421 9.23599 12.5244 9.06053 12.6885 8.86913C12.8525 8.67772 12.9847 8.44074 13.085 8.15819C13.1898 7.87108 13.2422 7.55663 13.2422 7.21483C13.2422 6.51756 12.9801 5.97524 12.4561 5.58788C11.9365 5.19595 11.2484 4.99998 10.3916 4.99998C9.39811 4.99998 8.66667 5.17088 8.19727 5.51268C7.73242 5.85448 7.5 6.2897 7.5 6.81834C7.5 7.09634 7.58887 7.34927 7.7666 7.57713C7.94889 7.805 8.22461 7.91893 8.59375 7.91893C8.7806 7.91893 8.89681 7.89387 8.94238 7.84373C8.98796 7.78905 9.01074 7.65461 9.01074 7.44041V6.39452L9.1543 6.32616C9.24544 6.28058 9.40267 6.23501 9.62598 6.18944Z" fill="black"/>
</svg>
